X:601
T:The Pursuit
C:John Young, 1710
N:Also used by Cecil Sharp for the dance "Epsom New Wells" played ABB
S:Colin Hume's website,  colinhume.com  - chords can also be printed below the stave.
Q:1/2=112
M:2/2
L:1/8
K:G
P:A
|: G2 | "Em"E3F G2B2 | "D"d3e dedc | "G"B2d2 g2B2 | "Am"A4 E2E2 |\
"G"G3A B2"D/F#"d2 | "Em"g3a g2"Em/D"e2 | "C"g3a gage | "Bm"d2 B4 :|
P:B
|: ba | "Em"g3a g2ba | "C"g3a gage | "G"dedB dedB | "Am"A2 e4f2 |
"C"g3a g2fe | "G"d3e d2cB | "Em"G3A B2e2 | "Bm"d2 B4 :|

